X: 10
T: Rolling In The Barrel
R: reel
M: 4/4
L: 1/8
K: Ador
A2 ~A2 eA~A2|e2dB GABG|A2 ~A2 eA~A2|e2dB eAAG:|
A2cA eAcA|GFGB d2BG|A2c/B/A eAcA|GEDG EAAG|
A2cA eAcA|GFGB d2dB|ABc/B/A BcBA|GEDB eBdB A4|


Tune 500	Setting 500

